flaticon/office/desk-2.svg

<svg xmlns="http://www.w3.org/2000/svg" width="32" height="32" viewBox="0 0 24 24">
    <path d="M18.800781 14L19.601562 14C19.839844 14 20 13.839844 20 13.601562 20 13.359375 19.839844 13.199219 19.601562 13.199219L18.800781 13.199219C18.558594 13.199219 18.398438 13.359375 18.398438 13.601562 18.398438 13.839844 18.558594 14 18.800781 14zM18.800781 18L19.601562 18C19.839844 18 20 17.839844 20 17.601562 20 17.359375 19.839844 17.199219 19.601562 17.199219L18.800781 17.199219C18.558594 17.199219 18.398438 17.359375 18.398438 17.601562 18.398438 17.839844 18.558594 18 18.800781 18zM18.800781 22L19.601562 22C19.839844 22 20 21.839844 20 21.601562 20 21.359375 19.839844 21.199219 19.601562 21.199219L18.800781 21.199219C18.558594 21.199219 18.398438 21.359375 18.398438 21.601562 18.398438 21.839844 18.558594 22 18.800781 22zM18.800781 22"/>
    <path d="M 23.601562 9.601562 L 19.960938 9.601562 L 19.960938 9.320312 C 19.960938 8.800781 19.558594 8.398438 19.039062 8.398438 L 18.800781 8.398438 L 18.800781 8 L 22.800781 8 C 23.238281 8 23.601562 7.640625 23.640625 7.199219 L 23.640625 0.800781 C 23.640625 0.359375 23.28125 0 22.839844 0 L 12.441406 0 C 12 0 11.640625 0.359375 11.640625 0.800781 L 11.640625 4 L 6.480469 4 C 5.761719 4 5.039062 4.320312 4.601562 4.878906 C 4.121094 5.398438 3.921875 6.121094 4 6.839844 L 4.355469 9.601562 L 0.398438 9.601562 C 0.160156 9.601562 0 9.761719 0 10 L 0 11.601562 C 0 11.839844 0.160156 12 0.398438 12 L 0.800781 12 L 0.800781 23.601562 C 0.800781 23.839844 0.960938 24 1.199219 24 L 2.800781 24 C 3.039062 24 3.199219 23.839844 3.199219 23.601562 L 3.199219 12 L 4.671875 12 C 4.914062 13.175781 5.945312 14 7.121094 14 L 8.800781 14 L 8.800781 14.800781 L 6.800781 14.800781 C 5.679688 14.800781 4.800781 15.679688 4.800781 16.800781 C 4.800781 17.039062 4.960938 17.199219 5.199219 17.199219 L 8.800781 17.199219 L 8.800781 19.601562 C 8.121094 19.601562 7.601562 20.121094 7.601562 20.800781 L 7.601562 21.601562 L 6 21.601562 C 5.761719 21.601562 5.601562 21.761719 5.601562 22 L 5.601562 23.199219 C 5.601562 23.441406 5.761719 23.601562 6 23.601562 L 6.398438 23.601562 C 6.398438 23.839844 6.558594 24 6.800781 24 C 7.039062 24 7.199219 23.839844 7.199219 23.601562 L 11.199219 23.601562 C 11.199219 23.839844 11.359375 24 11.601562 24 C 11.839844 24 12 23.839844 12 23.601562 L 12.398438 23.601562 C 12.640625 23.601562 12.800781 23.441406 12.800781 23.199219 L 12.800781 22 C 12.800781 21.761719 12.640625 21.601562 12.398438 21.601562 L 10.800781 21.601562 L 10.800781 20.800781 C 10.800781 20.121094 10.28125 19.601562 9.601562 19.601562 L 9.601562 17.199219 L 13.199219 17.199219 C 13.441406 17.199219 13.601562 17.039062 13.601562 16.800781 C 13.601562 15.679688 12.71875 14.800781 11.601562 14.800781 L 9.601562 14.800781 L 9.601562 14 L 11.359375 14 C 12.535156 14 13.566406 13.175781 13.804688 12 L 15.199219 12 L 15.199219 23.601562 C 15.199219 23.839844 15.359375 24 15.601562 24 L 22.800781 24 C 23.039062 24 23.199219 23.839844 23.199219 23.601562 L 23.199219 12 L 23.601562 12 C 23.839844 12 24 11.839844 24 11.601562 L 24 10 C 24 9.761719 23.839844 9.601562 23.601562 9.601562 Z M 12 22.800781 L 6.398438 22.800781 L 6.398438 22.398438 L 12 22.398438 Z M 10 20.800781 L 10 21.601562 L 8.398438 21.601562 L 8.398438 20.800781 C 8.398438 20.558594 8.601562 20.398438 8.800781 20.398438 L 9.601562 20.398438 C 9.839844 20.398438 10 20.601562 10 20.800781 Z M 5.679688 16.398438 C 5.839844 15.921875 6.28125 15.601562 6.800781 15.601562 L 8.800781 15.601562 L 8.800781 16.398438 Z M 11.640625 15.601562 C 12.160156 15.601562 12.601562 15.921875 12.761719 16.398438 L 9.601562 16.398438 L 9.601562 15.601562 Z M 14.121094 9.601562 L 14.328125 8 L 16.398438 8 L 16.398438 8.398438 L 16.121094 8.398438 C 15.601562 8.398438 15.199219 8.800781 15.199219 9.320312 L 15.199219 9.601562 Z M 19.078125 9.199219 C 19.160156 9.199219 19.199219 9.238281 19.199219 9.320312 L 19.199219 9.601562 L 16.039062 9.601562 L 16.039062 9.320312 C 16.039062 9.238281 16.078125 9.199219 16.160156 9.199219 Z M 18 8.398438 L 17.199219 8.398438 L 17.199219 8 L 18 8 Z M 18.398438 7.199219 L 14.441406 7.199219 L 14.519531 6.839844 C 14.519531 6.679688 14.519531 6.558594 14.519531 6.398438 L 22.800781 6.398438 L 22.800781 7.199219 Z M 22.800781 0.800781 L 22.800781 5.558594 L 14.320312 5.558594 C 14.21875 5.296875 14.070312 5.046875 13.878906 4.839844 C 13.6875 4.632812 13.460938 4.453125 13.214844 4.316406 C 13.199219 4.308594 13.183594 4.300781 13.167969 4.292969 C 13.160156 4.289062 13.148438 4.285156 13.140625 4.277344 C 13.027344 4.21875 12.914062 4.171875 12.796875 4.132812 C 12.667969 4.089844 12.535156 4.054688 12.398438 4.03125 L 12.398438 0.800781 Z M 2.398438 23.199219 L 1.601562 23.199219 L 1.601562 12 L 2.398438 12 Z M 2.800781 11.199219 L 0.800781 11.199219 L 0.800781 10.398438 L 4.441406 10.398438 L 4.558594 11.199219 Z M 11.359375 13.199219 L 7.121094 13.199219 C 6.28125 13.199219 5.558594 12.558594 5.441406 11.71875 L 4.800781 6.71875 C 4.71875 6.199219 4.878906 5.71875 5.199219 5.359375 C 5.519531 5 6 4.800781 6.480469 4.800781 L 12 4.800781 C 12.480469 4.800781 12.960938 5 13.28125 5.359375 C 13.601562 5.761719 13.761719 6.238281 13.679688 6.71875 L 13.039062 11.71875 C 12.921875 12.558594 12.199219 13.199219 11.359375 13.199219 Z M 22.398438 19.199219 L 16 19.199219 L 16 16 L 22.398438 16 Z M 22.398438 23.199219 L 16 23.199219 L 16 20 L 22.398438 20 Z M 22.398438 15.199219 L 16 15.199219 L 16 12 L 22.398438 12 Z M 23.199219 11.199219 L 13.921875 11.199219 L 14.039062 10.398438 L 23.199219 10.398438 Z M 23.199219 11.199219"/>
    <path d="M13.199219 2.800781C13.320312 2.800781 13.398438 2.761719 13.480469 2.679688L14.28125 1.878906C14.441406 1.71875 14.441406 1.480469 14.28125 1.320312 14.121094 1.160156 13.878906 1.160156 13.71875 1.320312L12.921875 2.121094C12.761719 2.28125 12.761719 2.519531 12.921875 2.679688 13 2.761719 13.078125 2.800781 13.199219 2.800781zM13.71875 3.878906C13.800781 3.960938 13.878906 4 14 4 14.121094 4 14.199219 3.960938 14.28125 3.878906L15.878906 2.28125C16.039062 2.121094 16.039062 1.878906 15.878906 1.71875 15.71875 1.558594 15.480469 1.558594 15.320312 1.71875L13.71875 3.320312C13.558594 3.480469 13.558594 3.71875 13.71875 3.878906zM13.71875 3.878906"/>
</svg>

<svg xmlns="http://www.w3.org/2000/svg" width="32" height="32" viewBox="0 0 24 24">
    <path d="M18.8 14h.802c.238 0 .398-.16.398-.398 0-.243-.16-.403-.398-.403H18.8c-.242 0-.403.16-.403.403 0 .238.16.398.403.398zm0 0M18.8 18h.802c.238 0 .398-.16.398-.398 0-.243-.16-.403-.398-.403H18.8c-.242 0-.403.16-.403.403 0 .238.16.398.403.398zm0 0M18.8 22h.802c.238 0 .398-.16.398-.398 0-.243-.16-.403-.398-.403H18.8c-.242 0-.403.16-.403.403 0 .238.16.398.403.398zm0 0"/>
    <path d="M23.602 9.602H19.96V9.32a.909.909 0 0 0-.922-.922h-.238V8h4c.437 0 .8-.36.84-.8V.8c0-.44-.36-.8-.801-.8H12.44c-.441 0-.8.36-.8.8V4H6.48c-.72 0-1.442.32-1.88.879-.48.52-.68 1.242-.601 1.96l.355 2.763H.398C.16 9.602 0 9.762 0 10v1.602c0 .238.16.398.398.398h.403v11.602c0 .238.16.398.398.398h1.602c.238 0 .398-.16.398-.398V12h1.473a2.502 2.502 0 0 0 2.45 2H8.8v.8h-2c-1.121 0-2 .88-2 2 0 .24.16.4.398.4h3.602v2.402c-.68 0-1.2.52-1.2 1.199v.8H6c-.238 0-.398.16-.398.399v1.2c0 .241.16.402.398.402h.398c0 .238.16.398.403.398.238 0 .398-.16.398-.398h4c0 .238.16.398.403.398.238 0 .398-.16.398-.398h.398c.243 0 .403-.16.403-.403V22c0-.238-.16-.398-.403-.398h-1.597V20.8c0-.68-.52-1.2-1.2-1.2V17.2H13.2c.242 0 .403-.16.403-.398 0-1.121-.883-2-2-2h-2V14h1.757a2.494 2.494 0 0 0 2.446-2h1.394v11.602c0 .238.16.398.403.398H22.8c.238 0 .398-.16.398-.398V12h.403c.238 0 .398-.16.398-.398V10c0-.238-.16-.398-.398-.398zM12 22.8H6.398v-.403H12zm-2-2v.8H8.398v-.8c0-.242.204-.403.403-.403h.8c.239 0 .399.204.399.403zm-4.32-4.403c.16-.476.601-.796 1.12-.796h2v.796zm5.96-.796c.52 0 .962.32 1.122.796h-3.16v-.796zm2.481-6L14.328 8h2.07v.398h-.277a.909.909 0 0 0-.922.922v.282zm4.957-.403c.082 0 .121.04.121.121v.282h-3.16V9.32c0-.082.04-.12.121-.12zM18 8.4h-.8V8h.8zm.398-1.2h-3.957l.079-.36V6.4h8.28v.8zM22.801.801v4.758h-8.48a2.274 2.274 0 0 0-.442-.72 2.692 2.692 0 0 0-.664-.523l-.047-.023c-.008-.004-.02-.008-.027-.016a2.706 2.706 0 0 0-.742-.246V.801zM2.398 23.199h-.796V12h.796zm.403-12h-2v-.8h3.64l.118.8zm8.558 2H7.121c-.84 0-1.562-.64-1.68-1.48l-.64-5c-.082-.52.078-1 .398-1.36C5.52 5 6 4.801 6.48 4.801H12c.48 0 .96.199 1.281.558.32.403.48.88.399 1.36l-.64 5c-.118.84-.84 1.48-1.68 1.48zm11.04 6H16V16h6.398zm0 4H16V20h6.398zm0-8H16V12h6.398zm.8-4h-9.277l.117-.8h9.16zm0 0"/>
    <path d="M13.2 2.8c.12 0 .198-.038.28-.12l.801-.801a.385.385 0 0 0 0-.559.39.39 0 0 0-.562 0l-.797.801a.385.385 0 0 0 0 .559.348.348 0 0 0 .277.12zm0 0M13.719 3.879c.082.082.16.121.281.121.121 0 .2-.04.281-.121L15.88 2.28a.39.39 0 0 0 0-.562.385.385 0 0 0-.559 0L13.72 3.32a.385.385 0 0 0 0 .559zm0 0"/>
</svg>
